X:3329
T:Kleuterbos
T:Childgrove
O:england
C:Trad.
L:1/8
M:C|
K:Am
P:A
E2 A2 A2 B2 | c4 B2 A2 | d2 c2 B2 A2 | B3 A GF E2 | E2 A2 A2 B2 | c4 B2 e2 | d3 c Bc BA | A8 :|]
P:B
cd | e2 c2 c2 e2 | d2 B2 B2 d2 | c2 A2 AB cA | B2 E4 cd | e2 c2 c2 e2 | d2 c2 Bc dB | c2 BA B2 A^G |1 A6 cd :|2 A6 |]


